symbols/web/electric_moped/materialsymbolssharp/electric_moped_wght100grad200_20px.svg

<svg xmlns="http://www.w3.org/2000/svg" height="20" width="20"><path d="M5.917 13.958q-.875 0-1.49-.604t-.615-1.5H2.125V6.792h5.917v4.187h3.604l3.125-3.896V4.458H12.25v-.875h3.396v3.792l-3.584 4.479H8.021q0 .896-.604 1.5-.605.604-1.5.604Zm0-.875q.479 0 .854-.375t.375-.854H4.688q0 .479.374.854.376.375.855.375ZM4.646 5.208v-.875h3.396v.875Zm11.125 8.75q-.875 0-1.49-.604-.614-.604-.614-1.5t.604-1.5q.604-.604 1.5-.604t1.5.604q.604.604.604 1.5 0 .875-.604 1.49-.604.614-1.5.614Zm0-.875q.479 0 .854-.375t.375-.854q0-.479-.375-.854t-.854-.375q-.479 0-.854.375t-.375.854q0 .479.375.854t.854.375Zm-4.917 6.021-4.333-2.166h2.875v-1.521l4.312 2.229h-2.854Zm-3.687-8.125Zm-4.167 0h4.167V7.667H3Z"/></svg>

<svg xmlns="http://www.w3.org/2000/svg" height="20" width="20"><path d="M5.917 13.958Q5.042 13.958 4.427 13.354Q3.812 12.75 3.812 11.854H2.125V6.792H8.042V10.979H11.646L14.771 7.083V4.458H12.25V3.583H15.646V7.375L12.062 11.854H8.021Q8.021 12.75 7.417 13.354Q6.812 13.958 5.917 13.958ZM5.917 13.083Q6.396 13.083 6.771 12.708Q7.146 12.333 7.146 11.854H4.688Q4.688 12.333 5.062 12.708Q5.438 13.083 5.917 13.083ZM4.646 5.208V4.333H8.042V5.208ZM15.771 13.958Q14.896 13.958 14.281 13.354Q13.667 12.75 13.667 11.854Q13.667 10.958 14.271 10.354Q14.875 9.75 15.771 9.75Q16.667 9.75 17.271 10.354Q17.875 10.958 17.875 11.854Q17.875 12.729 17.271 13.344Q16.667 13.958 15.771 13.958ZM15.771 13.083Q16.25 13.083 16.625 12.708Q17 12.333 17 11.854Q17 11.375 16.625 11Q16.25 10.625 15.771 10.625Q15.292 10.625 14.917 11Q14.542 11.375 14.542 11.854Q14.542 12.333 14.917 12.708Q15.292 13.083 15.771 13.083ZM10.854 19.104 6.521 16.938H9.396V15.417L13.708 17.646H10.854ZM7.167 10.979ZM3 10.979H7.167V7.667H3Z"/></svg>
